X: 1308
T: Brady's Lookout in 1825
C:Alexander Laing (1792-1868), Hobart, Tas
B: australian traditional tunes wiki
M:6/8
L:1/8
R: Jig
Q: 3/8=100
K:G
V:1 
d|"G"g2d gab|d2B G2d|"C"cde ecA|"G"GBd D2d|g2d gab|d2BG2d|"C"cag "D7"fef |"G"g3g2d|
"C" cag "D7"fef|"G"gab d2B|"C"c2A"D7"f2a|"G"b3g2d|"C"cag "D7"fef|"G" gab d2B|"C"cde edc|"D"d3d2d|
"G"g2d gab|d2BG2d|"C"cde ecA|"G"GBdD2d|g2d gab|d2BG2d|"C"Aag "D7"fef|"G"g3g2||
% abcbook-tune_id 6342d53a646457b07faf7b36


% abcbook-boost 0
% abcbook-tablature 
% abcbook-transpose 
% abcbook-lastupdated 1665324358390
% abcbook-soundfonts 
% abcbook-repeats 1
% NFF Book 2019

